static/img/kroki/96dee87cf66f6dfbc42014d71fc375ac.svg

<?xml version="1.0" encoding="us-ascii" standalone="no"?><svg xmlns="http://www.w3.org/2000/svg" xmlns:xlink="http://www.w3.org/1999/xlink" contentStyleType="text/css" height="1033px" preserveAspectRatio="none" style="width:431px;height:1033px;" version="1.1" viewBox="0 0 431 1033" width="431px" zoomAndPan="magnify"><defs/><g><!--class azure_cosmos_db_mongo_db_user_definition--><g id="elem_azure_cosmos_db_mongo_db_user_definition"><rect codeLine="23" fill="#3D176E" height="205.5703" id="azure_cosmos_db_mongo_db_user_definition" rx="2.5" ry="2.5" style="stroke:#000D19;stroke-width:0.5;" width="417" x="7" y="660.14"/><ellipse cx="22" cy="680.0345" fill="#ADD1B2" rx="11" ry="11" style="stroke:#181818;stroke-width:1.0;"/><path d="M24.9688,685.6752 Q24.3906,685.972 23.75,686.1127 Q23.1094,686.2689 22.4063,686.2689 Q19.9063,686.2689 18.5781,684.6283 Q17.2656,682.972 17.2656,679.847 Q17.2656,676.722 18.5781,675.0658 Q19.9063,673.4095 22.4063,673.4095 Q23.1094,673.4095 23.75,673.5658 Q24.4063,673.722 24.9688,674.0189 L24.9688,676.7377 Q24.3438,676.1595 23.75,675.8939 Q23.1563,675.6127 22.5313,675.6127 Q21.1875,675.6127 20.5,676.6908 Q19.8125,677.7533 19.8125,679.847 Q19.8125,681.9408 20.5,683.0189 Q21.1875,684.0814 22.5313,684.0814 Q23.1563,684.0814 23.75,683.8158 Q24.3438,683.5345 24.9688,682.9564 L24.9688,685.6752 Z " fill="#000000"/><text fill="#D9B8FF" font-family="Helvetica" font-size="17" lengthAdjust="spacing" textLength="375" x="41" y="685.9198">azure_cosmos_db_mongo_db_user_definition</text><line style="stroke:#000D19;stroke-width:0.5;" x1="8" x2="423" y1="699.9291" y2="699.9291"/><text fill="#D9B8FF" font-family="sans-serif" font-size="14" font-weight="bold" lengthAdjust="spacing" textLength="99" x="18" y="721.9242">custom_data</text><text fill="#D9B8FF" font-family="sans-serif" font-size="14" lengthAdjust="spacing" textLength="48" x="117" y="721.9242">: string</text><text fill="#D9B8FF" font-family="sans-serif" font-size="14" font-weight="bold" lengthAdjust="spacing" textLength="122" x="18" y="748.2211">database_name</text><text fill="#D9B8FF" font-family="sans-serif" font-size="14" lengthAdjust="spacing" textLength="48" x="140" y="748.2211">: string</text><text fill="#D9B8FF" font-family="sans-serif" font-size="14" font-weight="bold" lengthAdjust="spacing" textLength="141" x="18" y="774.5179">user_mechanisms</text><text fill="#D9B8FF" font-family="sans-serif" font-size="14" lengthAdjust="spacing" textLength="48" x="159" y="774.5179">: string</text><text fill="#D9B8FF" font-family="sans-serif" font-size="14" font-weight="bold" lengthAdjust="spacing" textLength="86" x="18" y="800.8148">user_name</text><text fill="#D9B8FF" font-family="sans-serif" font-size="14" lengthAdjust="spacing" textLength="48" x="104" y="800.8148">: string</text><text fill="#D9B8FF" font-family="sans-serif" font-size="14" font-weight="bold" lengthAdjust="spacing" textLength="121" x="18" y="827.1117">user_password</text><text fill="#D9B8FF" font-family="sans-serif" font-size="14" lengthAdjust="spacing" textLength="48" x="139" y="827.1117">: string</text><text fill="#D9B8FF" font-family="sans-serif" font-size="14" font-weight="bold" lengthAdjust="spacing" textLength="83" x="18" y="853.4086">user_roles</text><text fill="#D9B8FF" font-family="sans-serif" font-size="14" lengthAdjust="spacing" textLength="91" x="101" y="853.4086">: azure_role[]</text></g><!--class azure_role--><g id="elem_azure_role"><rect codeLine="31" fill="#3D176E" height="100.3828" id="azure_role" rx="2.5" ry="2.5" style="stroke:#000D19;stroke-width:0.5;" width="129" x="151" y="925.71"/><ellipse cx="166" cy="945.6045" fill="#ADD1B2" rx="11" ry="11" style="stroke:#181818;stroke-width:1.0;"/><path d="M168.9688,951.2452 Q168.3906,951.542 167.75,951.6827 Q167.1094,951.8389 166.4063,951.8389 Q163.9063,951.8389 162.5781,950.1983 Q161.2656,948.542 161.2656,945.417 Q161.2656,942.292 162.5781,940.6358 Q163.9063,938.9795 166.4063,938.9795 Q167.1094,938.9795 167.75,939.1358 Q168.4063,939.292 168.9688,939.5889 L168.9688,942.3077 Q168.3438,941.7295 167.75,941.4639 Q167.1563,941.1827 166.5313,941.1827 Q165.1875,941.1827 164.5,942.2608 Q163.8125,943.3233 163.8125,945.417 Q163.8125,947.5108 164.5,948.5889 Q165.1875,949.6514 166.5313,949.6514 Q167.1563,949.6514 167.75,949.3858 Q168.3438,949.1045 168.9688,948.5264 L168.9688,951.2452 Z " fill="#000000"/><text fill="#D9B8FF" font-family="Helvetica" font-size="17" lengthAdjust="spacing" textLength="87" x="185" y="951.4898">azure_role</text><line style="stroke:#000D19;stroke-width:0.5;" x1="152" x2="279" y1="965.4991" y2="965.4991"/><text fill="#D9B8FF" font-family="sans-serif" font-size="14" font-weight="bold" lengthAdjust="spacing" textLength="20" x="162" y="987.4942">db</text><text fill="#D9B8FF" font-family="sans-serif" font-size="14" lengthAdjust="spacing" textLength="48" x="182" y="987.4942">: string</text><text fill="#D9B8FF" font-family="sans-serif" font-size="14" font-weight="bold" lengthAdjust="spacing" textLength="31" x="162" y="1013.7911">role</text><text fill="#D9B8FF" font-family="sans-serif" font-size="14" lengthAdjust="spacing" textLength="48" x="193" y="1013.7911">: string</text></g><!--class microsoft_resource--><g id="elem_microsoft_resource"><rect codeLine="35" fill="#3D176E" height="100.3828" id="microsoft_resource" rx="2.5" ry="2.5" style="stroke:#000D19;stroke-width:0.5;" width="214" x="108.5" y="438.75"/><ellipse cx="129.8" cy="458.6445" fill="#ADD1B2" rx="11" ry="11" style="stroke:#181818;stroke-width:1.0;"/><path d="M132.7688,464.2852 Q132.1906,464.582 131.55,464.7227 Q130.9094,464.8789 130.2063,464.8789 Q127.7063,464.8789 126.3781,463.2383 Q125.0656,461.582 125.0656,458.457 Q125.0656,455.332 126.3781,453.6758 Q127.7063,452.0195 130.2063,452.0195 Q130.9094,452.0195 131.55,452.1758 Q132.2063,452.332 132.7688,452.6289 L132.7688,455.3477 Q132.1438,454.7695 131.55,454.5039 Q130.9563,454.2227 130.3313,454.2227 Q128.9875,454.2227 128.3,455.3008 Q127.6125,456.3633 127.6125,458.457 Q127.6125,460.5508 128.3,461.6289 Q128.9875,462.6914 130.3313,462.6914 Q130.9563,462.6914 131.55,462.4258 Q132.1438,462.1445 132.7688,461.5664 L132.7688,464.2852 Z " fill="#000000"/><text fill="#D9B8FF" font-family="Helvetica" font-size="17" lengthAdjust="spacing" textLength="158" x="150.2" y="464.5298">microsoft_resource</text><line style="stroke:#000D19;stroke-width:0.5;" x1="109.5" x2="321.5" y1="478.5391" y2="478.5391"/><text fill="#D9B8FF" font-family="sans-serif" font-size="14" font-weight="bold" lengthAdjust="spacing" textLength="35" x="119.5" y="500.5342">etag</text><text fill="#D9B8FF" font-family="sans-serif" font-size="14" lengthAdjust="spacing" textLength="48" x="154.5" y="500.5342">: string</text><text fill="#D9B8FF" font-family="sans-serif" font-size="14" font-weight="bold" lengthAdjust="spacing" textLength="144" x="119.5" y="526.8311">provisioning_state</text><text fill="#D9B8FF" font-family="sans-serif" font-size="14" lengthAdjust="spacing" textLength="48" x="263.5" y="526.8311">: string</text></g><!--class resource--><g id="elem_resource"><rect codeLine="39" fill="#3D176E" height="310.7578" id="resource" rx="2.5" ry="2.5" style="stroke:#000D19;stroke-width:0.5;" width="227" x="102" y="7"/><ellipse cx="170.75" cy="26.8945" fill="#ADD1B2" rx="11" ry="11" style="stroke:#181818;stroke-width:1.0;"/><path d="M173.7188,32.5352 Q173.1406,32.832 172.5,32.9727 Q171.8594,33.1289 171.1563,33.1289 Q168.6563,33.1289 167.3281,31.4883 Q166.0156,29.832 166.0156,26.707 Q166.0156,23.582 167.3281,21.9258 Q168.6563,20.2695 171.1563,20.2695 Q171.8594,20.2695 172.5,20.4258 Q173.1563,20.582 173.7188,20.8789 L173.7188,23.5977 Q173.0938,23.0195 172.5,22.7539 Q171.9063,22.4727 171.2813,22.4727 Q169.9375,22.4727 169.25,23.5508 Q168.5625,24.6133 168.5625,26.707 Q168.5625,28.8008 169.25,29.8789 Q169.9375,30.9414 171.2813,30.9414 Q171.9063,30.9414 172.5,30.6758 Q173.0938,30.3945 173.7188,29.8164 L173.7188,32.5352 Z " fill="#000000"/><text fill="#D9B8FF" font-family="Helvetica" font-size="17" lengthAdjust="spacing" textLength="71" x="196.25" y="32.7798">resource</text><line style="stroke:#000D19;stroke-width:0.5;" x1="103" x2="328" y1="46.7891" y2="46.7891"/><text fill="#D9B8FF" font-family="sans-serif" font-size="14" font-weight="bold" lengthAdjust="spacing" textLength="29" x="113" y="68.7842">age</text><text fill="#D9B8FF" font-family="sans-serif" font-size="14" lengthAdjust="spacing" textLength="66" x="142" y="68.7842">: duration</text><text fill="#D9B8FF" font-family="sans-serif" font-size="14" font-weight="bold" lengthAdjust="spacing" textLength="43" x="113" y="95.0811">atime</text><text fill="#D9B8FF" font-family="sans-serif" font-size="14" lengthAdjust="spacing" textLength="70" x="156" y="95.0811">: datetime</text><text fill="#D9B8FF" font-family="sans-serif" font-size="14" font-weight="bold" lengthAdjust="spacing" textLength="43" x="113" y="121.3779">ctime</text><text fill="#D9B8FF" font-family="sans-serif" font-size="14" lengthAdjust="spacing" textLength="70" x="156" y="121.3779">: datetime</text><text fill="#D9B8FF" font-family="sans-serif" font-size="14" font-weight="bold" lengthAdjust="spacing" textLength="14" x="113" y="147.6748">id</text><text fill="#D9B8FF" font-family="sans-serif" font-size="14" lengthAdjust="spacing" textLength="48" x="127" y="147.6748">: string</text><text fill="#D9B8FF" font-family="sans-serif" font-size="14" font-weight="bold" lengthAdjust="spacing" textLength="33" x="113" y="173.9717">kind</text><text fill="#D9B8FF" font-family="sans-serif" font-size="14" lengthAdjust="spacing" textLength="48" x="146" y="173.9717">: string</text><text fill="#D9B8FF" font-family="sans-serif" font-size="14" font-weight="bold" lengthAdjust="spacing" textLength="90" x="113" y="200.2686">last_access</text><text fill="#D9B8FF" font-family="sans-serif" font-size="14" lengthAdjust="spacing" textLength="66" x="203" y="200.2686">: duration</text><text fill="#D9B8FF" font-family="sans-serif" font-size="14" font-weight="bold" lengthAdjust="spacing" textLength="90" x="113" y="226.5654">last_update</text><text fill="#D9B8FF" font-family="sans-serif" font-size="14" lengthAdjust="spacing" textLength="66" x="203" y="226.5654">: duration</text><text fill="#D9B8FF" font-family="sans-serif" font-size="14" font-weight="bold" lengthAdjust="spacing" textLength="48" x="113" y="252.8623">mtime</text><text fill="#D9B8FF" font-family="sans-serif" font-size="14" lengthAdjust="spacing" textLength="70" x="161" y="252.8623">: datetime</text><text fill="#D9B8FF" font-family="sans-serif" font-size="14" font-weight="bold" lengthAdjust="spacing" textLength="43" x="113" y="279.1592">name</text><text fill="#D9B8FF" font-family="sans-serif" font-size="14" lengthAdjust="spacing" textLength="48" x="156" y="279.1592">: string</text><text fill="#D9B8FF" font-family="sans-serif" font-size="14" font-weight="bold" lengthAdjust="spacing" textLength="34" x="113" y="305.4561">tags</text><text fill="#D9B8FF" font-family="sans-serif" font-size="14" lengthAdjust="spacing" textLength="171" x="147" y="305.4561">: dictionary[string, string]</text></g><!--link azure_cosmos_db_mongo_db_user_definition to azure_role--><g id="link_azure_cosmos_db_mongo_db_user_definition_azure_role"><path codeLine="51" d="M215.5,866.01 C215.5,886.63 215.5,901.42 215.5,919.22 " fill="none" id="azure_cosmos_db_mongo_db_user_definition-to-azure_role" style="stroke:#FFAF37;stroke-width:2.0;"/><polygon fill="#FFAF37" points="215.5,925.22,219.5,916.22,215.5,920.22,211.5,916.22,215.5,925.22" style="stroke:#FFAF37;stroke-width:2.0;"/></g><!--reverse link microsoft_resource to azure_cosmos_db_mongo_db_user_definition--><g id="link_microsoft_resource_azure_cosmos_db_mongo_db_user_definition"><path codeLine="52" d="M215.5,557.51 C215.5,591.07 215.5,618.61 215.5,659.74 " fill="none" id="microsoft_resource-backto-azure_cosmos_db_mongo_db_user_definition" style="stroke:#FFAF37;stroke-width:2.0;"/><polygon fill="none" points="215.5,539.51,209.5,557.51,221.5,557.51,215.5,539.51" style="stroke:#FFAF37;stroke-width:2.0;"/></g><!--reverse link resource to microsoft_resource--><g id="link_resource_microsoft_resource"><path codeLine="53" d="M215.5,336.06 C215.5,379.65 215.5,405.98 215.5,438.42 " fill="none" id="resource-backto-microsoft_resource" style="stroke:#FFAF37;stroke-width:2.0;"/><polygon fill="none" points="215.5,318.06,209.5,336.06,221.5,336.06,215.5,318.06" style="stroke:#FFAF37;stroke-width:2.0;"/></g><!--SRC=[ZLDDYzim4BtxLmZs5Xf8khJPb5BO1afxMKgtjwMOiJHsH2oD6SaRict_UoKxM-IF_RXPxxsPUVCaxxL2WQRn9s7G5CWkSmTj6s0mufgPZZkgYSL5MK9vkHcJNyZw5mKtO51ynVeUlPOmLlpSQtcmw9nucr2VGHugfjQglhrdi2vGQ7sYsjNWtBNth8lMOs96ROkhiXmhnqqlBjLwynudCcA5V9QiLYkrteubBuvwTk__YblzW6ATXdP37YSs9oCwrRCkeo8nELdqaN_IutTGIjjAl4km7xqdjiW3_7OFYevHNKBjqZ7E8oFvKuExoLQulLBbPbRyxIbn9cDq0XvQnboIC-HoLUI6R4NnetN8kS9IM-qrMV4xMonawpoPN867nU93cCB1QS0ZK833t8OC1apNnQ3SWzNEk2atNz44QyTmArE6gSQkJMyy7kz-PNy7sqImywkAGOE89y1ZaT6IoL7fSqP7BSk-63rKW_A6wLwxa4Kuviw3dsisQ05L9r4jGymm8bxt-uR8C7x7L6SmFLmzNEmG2BDy3bA6dtqqeMFQHftj9OoPcJE9FopTTzGobW6VxdhkpLaJmtxrerakFoLtaiqa_V7FShbyzIlCHdNJXja_]--></g></svg>

<svg xmlns="http://www.w3.org/2000/svg" width="431" height="1033" viewBox="0 0 431 1033"><rect width="417" height="205.57" x="7" y="660.14" fill="#3D176E" rx="2.5" ry="2.5" style="stroke:#000d19;stroke-width:.5"/><circle cx="22" cy="680.034" r="11" fill="#ADD1B2" style="stroke:#181818;stroke-width:1"/><path d="M24.969 685.675q-.578.297-1.219.438-.64.156-1.344.156-2.5 0-3.828-1.64-1.312-1.657-1.312-4.782t1.312-4.781q1.328-1.657 3.828-1.657.703 0 1.344.157.656.156 1.219.453v2.719q-.625-.579-1.219-.844-.594-.281-1.219-.281-1.343 0-2.031 1.078-.687 1.062-.687 3.156t.687 3.172q.688 1.062 2.031 1.062.625 0 1.219-.265.594-.282 1.219-.86z"/><text x="41" y="685.92" fill="#D9B8FF" font-family="Helvetica" font-size="17" textLength="375">azure_cosmos_db_mongo_db_user_definition</text><path d="M8 699.929h415" style="stroke:#000d19;stroke-width:.5"/><text x="18" y="721.924" fill="#D9B8FF" font-family="sans-serif" font-size="14" font-weight="bold" textLength="99">custom_data</text><text x="117" y="721.924" fill="#D9B8FF" font-family="sans-serif" font-size="14" textLength="48">: string</text><text x="18" y="748.221" fill="#D9B8FF" font-family="sans-serif" font-size="14" font-weight="bold" textLength="122">database_name</text><text x="140" y="748.221" fill="#D9B8FF" font-family="sans-serif" font-size="14" textLength="48">: string</text><text x="18" y="774.518" fill="#D9B8FF" font-family="sans-serif" font-size="14" font-weight="bold" textLength="141">user_mechanisms</text><text x="159" y="774.518" fill="#D9B8FF" font-family="sans-serif" font-size="14" textLength="48">: string</text><text x="18" y="800.815" fill="#D9B8FF" font-family="sans-serif" font-size="14" font-weight="bold" textLength="86">user_name</text><text x="104" y="800.815" fill="#D9B8FF" font-family="sans-serif" font-size="14" textLength="48">: string</text><text x="18" y="827.112" fill="#D9B8FF" font-family="sans-serif" font-size="14" font-weight="bold" textLength="121">user_password</text><text x="139" y="827.112" fill="#D9B8FF" font-family="sans-serif" font-size="14" textLength="48">: string</text><text x="18" y="853.409" fill="#D9B8FF" font-family="sans-serif" font-size="14" font-weight="bold" textLength="83">user_roles</text><text x="101" y="853.409" fill="#D9B8FF" font-family="sans-serif" font-size="14" textLength="91">: azure_role[]</text><rect width="129" height="100.383" x="151" y="925.71" fill="#3D176E" rx="2.5" ry="2.5" style="stroke:#000d19;stroke-width:.5"/><circle cx="166" cy="945.605" r="11" fill="#ADD1B2" style="stroke:#181818;stroke-width:1"/><path d="M168.969 951.245q-.578.297-1.219.438-.64.156-1.344.156-2.5 0-3.828-1.64-1.312-1.657-1.312-4.782t1.312-4.781q1.328-1.656 3.828-1.656.703 0 1.344.156.656.156 1.219.453v2.719q-.625-.578-1.219-.844-.594-.281-1.219-.281-1.344 0-2.031 1.078-.687 1.062-.687 3.156t.687 3.172q.688 1.062 2.031 1.062.625 0 1.219-.265.594-.281 1.219-.86z"/><text x="185" y="951.49" fill="#D9B8FF" font-family="Helvetica" font-size="17" textLength="87">azure_role</text><path d="M152 965.499h127" style="stroke:#000d19;stroke-width:.5"/><text x="162" y="987.494" fill="#D9B8FF" font-family="sans-serif" font-size="14" font-weight="bold" textLength="20">db</text><text x="182" y="987.494" fill="#D9B8FF" font-family="sans-serif" font-size="14" textLength="48">: string</text><text x="162" y="1013.791" fill="#D9B8FF" font-family="sans-serif" font-size="14" font-weight="bold" textLength="31">role</text><text x="193" y="1013.791" fill="#D9B8FF" font-family="sans-serif" font-size="14" textLength="48">: string</text><rect width="214" height="100.383" x="108.5" y="438.75" fill="#3D176E" rx="2.5" ry="2.5" style="stroke:#000d19;stroke-width:.5"/><circle cx="129.8" cy="458.644" r="11" fill="#ADD1B2" style="stroke:#181818;stroke-width:1"/><path d="M132.769 464.285q-.578.297-1.219.438-.64.156-1.344.156-2.5 0-3.828-1.64-1.312-1.657-1.312-4.782t1.312-4.781q1.328-1.656 3.828-1.656.703 0 1.344.156.656.156 1.219.453v2.719q-.625-.579-1.219-.844-.594-.281-1.219-.281-1.343 0-2.031 1.078-.688 1.062-.688 3.156t.688 3.172q.688 1.062 2.031 1.062.625 0 1.219-.265.594-.281 1.219-.86z"/><text x="150.2" y="464.53" fill="#D9B8FF" font-family="Helvetica" font-size="17" textLength="158">microsoft_resource</text><path d="M109.5 478.539h212" style="stroke:#000d19;stroke-width:.5"/><text x="119.5" y="500.534" fill="#D9B8FF" font-family="sans-serif" font-size="14" font-weight="bold" textLength="35">etag</text><text x="154.5" y="500.534" fill="#D9B8FF" font-family="sans-serif" font-size="14" textLength="48">: string</text><text x="119.5" y="526.831" fill="#D9B8FF" font-family="sans-serif" font-size="14" font-weight="bold" textLength="144">provisioning_state</text><text x="263.5" y="526.831" fill="#D9B8FF" font-family="sans-serif" font-size="14" textLength="48">: string</text><rect width="227" height="310.758" x="102" y="7" fill="#3D176E" rx="2.5" ry="2.5" style="stroke:#000d19;stroke-width:.5"/><circle cx="170.75" cy="26.895" r="11" fill="#ADD1B2" style="stroke:#181818;stroke-width:1"/><path d="M173.719 32.535q-.578.297-1.219.438-.64.156-1.344.156-2.5 0-3.828-1.64-1.312-1.657-1.312-4.782t1.312-4.781q1.328-1.656 3.828-1.656.703 0 1.344.156.656.156 1.219.453v2.719q-.625-.578-1.219-.844-.594-.281-1.219-.281-1.344 0-2.031 1.078-.687 1.062-.687 3.156t.687 3.172q.688 1.062 2.031 1.062.625 0 1.219-.265.594-.281 1.219-.86z"/><text x="196.25" y="32.78" fill="#D9B8FF" font-family="Helvetica" font-size="17" textLength="71">resource</text><path d="M103 46.789h225" style="stroke:#000d19;stroke-width:.5"/><text x="113" y="68.784" fill="#D9B8FF" font-family="sans-serif" font-size="14" font-weight="bold" textLength="29">age</text><text x="142" y="68.784" fill="#D9B8FF" font-family="sans-serif" font-size="14" textLength="66">: duration</text><text x="113" y="95.081" fill="#D9B8FF" font-family="sans-serif" font-size="14" font-weight="bold" textLength="43">atime</text><text x="156" y="95.081" fill="#D9B8FF" font-family="sans-serif" font-size="14" textLength="70">: datetime</text><text x="113" y="121.378" fill="#D9B8FF" font-family="sans-serif" font-size="14" font-weight="bold" textLength="43">ctime</text><text x="156" y="121.378" fill="#D9B8FF" font-family="sans-serif" font-size="14" textLength="70">: datetime</text><text x="113" y="147.675" fill="#D9B8FF" font-family="sans-serif" font-size="14" font-weight="bold" textLength="14">id</text><text x="127" y="147.675" fill="#D9B8FF" font-family="sans-serif" font-size="14" textLength="48">: string</text><text x="113" y="173.972" fill="#D9B8FF" font-family="sans-serif" font-size="14" font-weight="bold" textLength="33">kind</text><text x="146" y="173.972" fill="#D9B8FF" font-family="sans-serif" font-size="14" textLength="48">: string</text><text x="113" y="200.269" fill="#D9B8FF" font-family="sans-serif" font-size="14" font-weight="bold" textLength="90">last_access</text><text x="203" y="200.269" fill="#D9B8FF" font-family="sans-serif" font-size="14" textLength="66">: duration</text><text x="113" y="226.565" fill="#D9B8FF" font-family="sans-serif" font-size="14" font-weight="bold" textLength="90">last_update</text><text x="203" y="226.565" fill="#D9B8FF" font-family="sans-serif" font-size="14" textLength="66">: duration</text><text x="113" y="252.862" fill="#D9B8FF" font-family="sans-serif" font-size="14" font-weight="bold" textLength="48">mtime</text><text x="161" y="252.862" fill="#D9B8FF" font-family="sans-serif" font-size="14" textLength="70">: datetime</text><text x="113" y="279.159" fill="#D9B8FF" font-family="sans-serif" font-size="14" font-weight="bold" textLength="43">name</text><text x="156" y="279.159" fill="#D9B8FF" font-family="sans-serif" font-size="14" textLength="48">: string</text><text x="113" y="305.456" fill="#D9B8FF" font-family="sans-serif" font-size="14" font-weight="bold" textLength="34">tags</text><text x="147" y="305.456" fill="#D9B8FF" font-family="sans-serif" font-size="14" textLength="171">: dictionary[string, string]</text><path fill="none" d="M215.5 866.01v53.21" style="stroke:#ffaf37;stroke-width:2"/><path fill="#FFAF37" d="m215.5 925.22 4-9-4 4-4-4z" style="stroke:#ffaf37;stroke-width:2"/><path fill="none" d="M215.5 557.51v102.23m0-120.23-6 18h12zm0-203.45v102.36m0-120.36-6 18h12z" style="stroke:#ffaf37;stroke-width:2"/></svg>
